X:42
T:Gregs Pipes. LW.042
M:4/4
Q:1/4=100
L:1/8
B:Lionel Winship MS, 1833, Wark, Northumberland
Z:Village Music Project 2017 Anne Wride
K:G
de/f/ |: gdBg BG Ge/f/ | gdBg cA Ae/f/ | gdBg dgBg | ABcd eAAg :|
|: TdGTBG TdGGe | TdGTBG TeAAe | TdGTBG TdGTBG | ABcd eAAg :|

